img/external-link-light.svg

<svg fill="none" height="18" viewBox="0 0 18 18" width="18" xmlns="http://www.w3.org/2000/svg" xmlns:xlink="http://www.w3.org/1999/xlink"><clipPath id="a"><path d="m0 0h18v18h-18z"/></clipPath><g clip-path="url(#a)"><path d="m2.00002 0v3h10.89998l-12.499976 12.4 2.199996 2.2 12.39998-12.5v10.9h3v-16z" fill="#fff"/></g></svg>

<svg width="18" height="18" viewBox="0 0 18 18" fill="none" xmlns="http://www.w3.org/2000/svg">
<g clip-path="url(#clip0_1088_42416)">
<path d="M2.00002 0V3H12.9L0.400024 15.4L2.60002 17.6L15 5.1V16H18V0H2.00002Z" fill="white"/>
</g>
<defs>
<clipPath id="clip0_1088_42416">
<rect width="18" height="18" fill="white"/>
</clipPath>
</defs>
</svg>
